iconos/svg/facebook.svg

<?xml version="1.0" encoding="utf-8"?>
<!-- Generated by IcoMoon.io -->
<!DOCTYPE svg PUBLIC "-//W3C//DTD SVG 1.1//EN" "http://www.w3.org/Graphics/SVG/1.1/DTD/svg11.dtd">
<svg version="1.1" xmlns="http://www.w3.org/2000/svg" xmlns:xlink="http://www.w3.org/1999/xlink" width="16" height="16" viewBox="0 0 16 16">
<path d="M8 0c-4.418 0-8 3.582-8 8s3.582 8 8 8 8-3.582 8-8c0-4.419-3.582-8-8-8zM10.068 7.999l-1.311 0.001-0.001 4.8h-1.799v-4.8h-1.2v-1.654l1.2-0.001-0.002-0.974c0-1.35 0.366-2.171 1.955-2.171h1.324v1.655h-0.828c-0.619 0-0.649 0.231-0.649 0.662l-0.002 0.828h1.488l-0.175 1.654z" fill="#444444"></path>
</svg>

<?xml version="1.0" encoding="utf-8"?>
<!-- Generator: Adobe Illustrator 16.0.4, SVG Export Plug-In . SVG Version: 6.00 Build 0)  -->
<!DOCTYPE svg PUBLIC "-//W3C//DTD SVG 1.1//EN" "http://www.w3.org/Graphics/SVG/1.1/DTD/svg11.dtd">
<svg version="1.1" id="Capa_1" xmlns="http://www.w3.org/2000/svg" xmlns:xlink="http://www.w3.org/1999/xlink" x="0px" y="0px"
	 width="16px" height="16px" viewBox="0 0 16 16" enable-background="new 0 0 16 16" xml:space="preserve">
<path d="M8,0C3.582,0,0,3.582,0,8s3.582,8,8,8s8-3.582,8-8C16,3.581,12.418,0,8,0z M10.068,7.999L8.757,8l-0.001,4.8H6.957V8h-1.2
	V6.346l1.2-0.001L6.955,5.371c0-1.35,0.366-2.171,1.955-2.171h1.324v1.655H9.406c-0.619,0-0.649,0.231-0.649,0.662L8.755,6.345
	h1.488L10.068,7.999z"/>
</svg>
